packages/dnb-ui-lib/assets/icons/bankid.svg

<svg width="16" height="16" viewBox="0 0 16 16" fill="none" xmlns="http://www.w3.org/2000/svg">
<path fill-rule="evenodd" clip-rule="evenodd" d="M0.5 3C0.223858 3 0 3.22386 0 3.5V4C0 4.27614 0.223858 4.5 0.5 4.5H3.5C3.77614 4.5 4 4.27614 4 4V3.5C4 3.22386 3.77614 3 3.5 3H0.5ZM12.5 3C12.2239 3 12 3.22386 12 3.5V4C12 4.27614 12.2239 4.5 12.5 4.5H15.5C15.7761 4.5 16 4.27614 16 4V3.5C16 3.22386 15.7761 3 15.5 3H12.5ZM6 6C6 5.72386 6.22386 5.5 6.5 5.5H9.5C9.77614 5.5 10 5.72386 10 6V6.5C10 6.77614 9.77614 7 9.5 7H6.5C6.22386 7 6 6.77614 6 6.5V6ZM0.5 8.5C0.223858 8.5 0 8.72386 0 9V9.5C0 9.77614 0.223858 10 0.5 10H3.5C3.77614 10 4 9.77614 4 9.5V9C4 8.72386 3.77614 8.5 3.5 8.5H0.5ZM0 12C0 11.7239 0.223858 11.5 0.5 11.5H3.5C3.77614 11.5 4 11.7239 4 12V12.5C4 12.7761 3.77614 13 3.5 13H0.5C0.223858 13 0 12.7761 0 12.5V12ZM12.5 5.5C12.2239 5.5 12 5.72386 12 6V6.5C12 6.77614 12.2239 7 12.5 7H15.5C15.7761 7 16 6.77614 16 6.5V6C16 5.72386 15.7761 5.5 15.5 5.5H12.5ZM6 9C6 8.72386 6.22386 8.5 6.5 8.5H9.5C9.77614 8.5 10 8.72386 10 9V9.5C10 9.77614 9.77614 10 9.5 10H6.5C6.22386 10 6 9.77614 6 9.5V9ZM12.5 11.5C12.2239 11.5 12 11.7239 12 12V12.5C12 12.7761 12.2239 13 12.5 13H15.5C15.7761 13 16 12.7761 16 12.5V12C16 11.7239 15.7761 11.5 15.5 11.5H12.5Z" fill="#333333"/>
</svg>

<svg width="16" height="16" viewBox="0 0 16 16" fill="none" xmlns="http://www.w3.org/2000/svg"><path fill-rule="evenodd" clip-rule="evenodd" d="M.5 3a.5.5 0 00-.5.5V4a.5.5 0 00.5.5h3A.5.5 0 004 4v-.5a.5.5 0 00-.5-.5h-3zm12 0a.5.5 0 00-.5.5V4a.5.5 0 00.5.5h3A.5.5 0 0016 4v-.5a.5.5 0 00-.5-.5h-3zM6 6a.5.5 0 01.5-.5h3a.5.5 0 01.5.5v.5a.5.5 0 01-.5.5h-3a.5.5 0 01-.5-.5V6zM.5 8.5A.5.5 0 000 9v.5a.5.5 0 00.5.5h3a.5.5 0 00.5-.5V9a.5.5 0 00-.5-.5h-3zM0 12a.5.5 0 01.5-.5h3a.5.5 0 01.5.5v.5a.5.5 0 01-.5.5h-3a.5.5 0 01-.5-.5V12zm12.5-6.5a.5.5 0 00-.5.5v.5a.5.5 0 00.5.5h3a.5.5 0 00.5-.5V6a.5.5 0 00-.5-.5h-3zM6 9a.5.5 0 01.5-.5h3a.5.5 0 01.5.5v.5a.5.5 0 01-.5.5h-3a.5.5 0 01-.5-.5V9zm6.5 2.5a.5.5 0 00-.5.5v.5a.5.5 0 00.5.5h3a.5.5 0 00.5-.5V12a.5.5 0 00-.5-.5h-3z" fill="#333"/></svg>
